X:1
T:[ID 2-113]
T:[ID 2-113]
T:Bezeichnung standardisiert: Joan's Placket; Jan Koop mij Kermis; Tantz In dieser Quelle auch als: Jan Cop Kermes In dieser Quelle auch als: Tantz Jan Cop Kermess In anderer Quelle: Joan's Placket - Dancing Master 1687 (Anm. S. Wascher);  42 Dantz (in C) - J. F. Drey\sser 1720 (Anm. S. Wascher);  53. Jan Koop mij Kermis - W. M. Visser 1817 (Anm. S. Wascher);
T:Urheber unbekannt Erstbeleg: 1687 (Datum in der schriftlichen Quelle) Datum in der hier transkribierten schriftlichen Quelle: 1767
C:Urheber unbekannt
C:Erstbeleg: 1687 (Datum in der schriftlichen Quelle)
C:Datum in der hier transkribierten schriftlichen Quelle: 1767
L:1/8
M:2/4
K:G
V:1 treble 
V:1
 G | B2 BG | A2 Ac | BGAF | GDB,G, | B2 BG | A2 Ac | BGAF | G3 :: (3d/e/f/ | gddd | eddd | gddd | %13
 ed d2 | B2 BG | A2 Ac | BGAF | G3 :| %18

